X:1
T:Hidalgo, 10.10.12.10
T:Hidalgo, 10.10.12.10
T:Caleb Simper, 1900
T:Public Domain Courtesy of the Cyber Hymnal™
C:Caleb Simper, 1900
Z:Public Domain
Z:Courtesy of the Cyber Hymnal™
%%score ( 1 2 ) ( 3 4 )
L:1/8
Q:1/4=110
M:4/4
K:Eb
V:1 treble 
V:2 treble 
V:3 bass 
V:4 bass 
V:1
 [EG]4 [E^F]2 [EG]2 | [EB]2 [EA]2 ([EG]2 [DF]2) | E4 [EF]2 [EF]2 | [EG]8 | [GB]4 [_G=A]2 [FB]2 | %5
 [Fd]2 [Ec]2 ([DB]2 [^CG]2) | F4 [_FG]2 [E=A]2 | [DB]8 | [DA]4 [DA]2 [DA]2 | [DG]2 [DF]2 E4 | %10
 [=EB]4 [EB]2 [EB]2 | [=EA]2 [EG]2 F4 | [Fd]4 [Ee]2 [Gc]2 | [GB]2 [FA]2 (G2 F2) | %14
 E4 [EG]2 [DF]2 x | E8 |] %16
V:2
 x8 | x8 | E4 x4 | x8 | x8 | x8 | (D2 _F2) x4 | x8 | x8 | x4 E4 | x8 | x4 F4 | x8 | x4 D4 | E4 x5 | %15
 E8 |] %16
V:3
 [E,B,]4 [E,=A,]2 [E,B,]2 | [E,_D]2 [E,C]2 ([E,B,]2 [B,,A,]2) | %2
 ([C,G,]2 [G,,B,]2) [A,,C]2 [A,,C]2 | [E,,E,B,]8 | [E,B,]4 [E,C]2 [D,B,]2 | [B,,B,]2 [F,=A,]2 B,4 | %6
 (B,2 D2) [F,_D]2 [F,C]2 | [B,,B,]8 | [B,,F,]4 [B,,F,]2 [B,,F,]2 | [B,,B,]2 [B,,A,]2 G,4 | %10
 [C,G,]4 [C,G,]2 [C,G,]2 | [C,C]2 [C,B,]2 [F,A,]4 | [A,B,]4 [G,B,]2 [E,E]2 | %13
 [=E,_D]2 [F,C]2 [G,=B,]4 | (C2 G,2) B,3 z A, | [E,G,]8 |] %16
V:4
 x8 | x8 | x8 | x8 | x8 | x4 (G,2 =E,2) | F,4 x4 | x8 | x8 | x4 E,2 _D,2 | x8 | x8 | x8 | x8 | %14
 C,4 B,,2 B,,2 x | x8 |] %16

